kora/actions/scalable/fcitx-sayura.svg

<svg xmlns="http://www.w3.org/2000/svg" width="16" height="16" version="1.1">
 <defs>
  <style id="current-color-scheme" type="text/css">
   .ColorScheme-Text { color:#dfdfdf; } .ColorScheme-Highlight { color:#4285f4; }
  </style>
 </defs>
 <path style="fill:currentColor" class="ColorScheme-Text" d="M 2,0 C 0.892,0 0,0.892 0,2 V 14 C 0,15.108 0.892,16 2,16 H 14 C 15.108,16 16,15.108 16,14 V 2 C 16,0.892 15.108,0 14,0 Z M 10.799,2.0566 11.672,2.7539 C 11.64,2.8068 11.613,2.8542 11.592,2.8965 11.581,2.9388 11.576,3.0033 11.576,3.0879 11.576,3.2042 11.614,3.3344 11.688,3.4824 12.2,3.8752 12.504,4.3433 12.832,4.8477 12.919,5.0339 13.018,5.2175 13.033,5.4141 13.068,5.8673 12.886,6.2501 12.59,6.5566 12.294,6.8632 11.469,7.0156 10.719,7.0156 10.518,7.0156 10.222,6.9884 10,6.9355 V 10.639 C 10.19,10.586 10.461,10.518 10.641,10.434 10.831,10.349 11.026,10.254 11.227,10.148 L 11.639,11.211 C 11.385,11.327 11.128,11.432 10.863,11.527 10.61,11.612 10.264,11.687 10,11.75 V 15 H 9 V 11.939 C 8.6935,11.982 7.1733,12.051 6.8984,12.051 5.9154,12.051 5.0594,11.908 4.3301,11.623 3.6007,11.327 3.0294,10.893 2.6172,10.322 2.2155,9.7524 2,8.9382 2,8.082 2.0285,7.4858 2.2458,7.0335 2.543,6.6523 3.1455,5.8881 3.862,5.5204 4.6797,5.2148 5.0285,5.1197 5.4353,5.0942 5.9004,5.0625 6.3761,5.0203 6.9473,5 7.6133,5 H 9 C 8.9683,4.5032 8.7854,3.6993 8.5,3.4668 8.2252,3.2342 7.8709,3.1191 7.4375,3.1191 7.0252,3.1191 6.7134,3.1989 6.502,3.3574 6.2905,3.5054 6.1855,3.7103 6.1855,3.9746 6.1855,3.9746 6.2012,4.1812 6.2012,4.2129 L 5.0742,4.3555 C 5.0531,4.2603 5.043,3.8633 5.043,3.8633 5.043,3.2819 5.2499,2.8378 5.6621,2.5312 6.0744,2.2247 6.6386,2.0723 7.3574,2.0723 8.4568,2.0723 9.2178,2.5164 9.6406,3.4043 9.926,2.918 10.313,2.4689 10.799,2.0566 Z M 10.703,3.6738 C 10.439,3.9909 10.185,4.3028 10.111,4.6094 10.037,4.9159 10,4.8496 10,5.209 V 5.9062 C 10.17,5.9402 10.44,5.9688 10.656,5.9688 11.005,5.9688 11.548,5.9112 11.686,5.7949 11.818,5.6104 11.855,5.4584 11.844,5.3184 11.794,5.0427 11.682,4.8182 11.539,4.6055 11.321,4.2166 10.976,3.9478 10.703,3.6738 Z M 7.7246,6 C 6.9847,5.9998 6.3912,6.0202 5.9473,6.0625 5.5139,6.1048 5.1596,6.1744 4.8848,6.2695 4.6205,6.3541 4.3833,6.4668 4.1719,6.5938 3.5845,7.0653 3.3244,7.4802 3.2695,7.9316 3.2476,8.2351 3.1858,8.4943 3.2305,8.7188 3.432,9.7322 4.0092,10.078 4.7754,10.545 5.3356,10.799 6.0846,10.924 7.0254,10.924 7.3108,10.924 8.7357,10.877 9,10.846 V 6 Z"/>
</svg>

<svg xmlns="http://www.w3.org/2000/svg" style="fill-rule:evenodd;clip-rule:evenodd;stroke-linejoin:round;stroke-miterlimit:2" width="100%" height="100%" version="1.1" viewBox="0 0 16 16" xml:space="preserve">
 <defs>
  <style id="current-color-scheme" type="text/css">
   .ColorScheme-Text { color:#dfdfdf; } .ColorScheme-Highlight { color:#4285f4; } .ColorScheme-NeutralText { color:#ff9800; } .ColorScheme-PositiveText { color:#4caf50; } .ColorScheme-NegativeText { color:#f44336; }
  </style>
 </defs>
 <path style="fill:currentColor;" class="ColorScheme-Text" d="M10.799,2.057l0.873,0.697c-0.032,0.053 -0.059,0.1 -0.08,0.143c-0.011,0.042 -0.016,0.106 -0.016,0.191c0,0.116 0.038,0.246 0.112,0.394c0.512,0.393 0.816,0.861 1.144,1.366c0.087,0.186 0.186,0.369 0.201,0.566c0.035,0.453 -0.147,0.836 -0.443,1.143c-0.296,0.306 -1.121,0.459 -1.871,0.459c-0.201,-0 -0.497,-0.028 -0.719,-0.08l0,3.703c0.19,-0.053 0.461,-0.121 0.641,-0.205c0.19,-0.085 0.385,-0.18 0.586,-0.286l0.412,1.063c-0.254,0.116 -0.511,0.221 -0.776,0.316c-0.253,0.085 -0.599,0.16 -0.863,0.223l-0,3.25l-1,-0l-0,-3.061c-0.307,0.043 -1.827,0.112 -2.102,0.112c-0.983,-0 -1.839,-0.143 -2.568,-0.428c-0.729,-0.296 -1.301,-0.73 -1.713,-1.301c-0.402,-0.57 -0.617,-1.384 -0.617,-2.24c0.028,-0.596 0.246,-1.049 0.543,-1.43c0.602,-0.764 1.319,-1.132 2.137,-1.437c0.348,-0.095 0.755,-0.121 1.22,-0.153c0.476,-0.042 1.047,-0.062 1.713,-0.062l1.387,-0c-0.032,-0.497 -0.215,-1.301 -0.5,-1.533c-0.275,-0.233 -0.629,-0.348 -1.063,-0.348c-0.412,0 -0.724,0.08 -0.935,0.238c-0.212,0.148 -0.317,0.353 -0.317,0.618c0,-0 0.016,0.206 0.016,0.238l-1.127,0.142c-0.021,-0.095 -0.031,-0.492 -0.031,-0.492c-0,-0.581 0.207,-1.025 0.619,-1.332c0.412,-0.306 0.977,-0.459 1.695,-0.459c1.1,0 1.861,0.444 2.284,1.332c0.285,-0.486 0.672,-0.935 1.158,-1.347Zm-3.074,3.943c-0.74,-0 -1.334,0.02 -1.778,0.062c-0.433,0.043 -0.787,0.112 -1.062,0.207c-0.265,0.085 -0.502,0.198 -0.713,0.325c-0.588,0.471 -0.848,0.886 -0.903,1.338c-0.021,0.303 -0.083,0.562 -0.039,0.787c0.202,1.013 0.779,1.359 1.545,1.826c0.561,0.254 1.31,0.379 2.25,0.379c0.286,-0 1.711,-0.047 1.975,-0.078l-0,-4.846l-1.275,-0Zm2.978,-2.326c-0.264,0.317 -0.518,0.629 -0.592,0.935c-0.074,0.307 -0.111,0.241 -0.111,0.6l0,0.697c0.17,0.034 0.44,0.063 0.656,0.063c0.349,-0 0.892,-0.058 1.03,-0.174c0.132,-0.185 0.169,-0.337 0.158,-0.477c-0.05,-0.275 -0.162,-0.5 -0.305,-0.713c-0.218,-0.388 -0.563,-0.657 -0.836,-0.931Z"/>
</svg>
